X: 3
T: In Continental Mood
Z: guy boitier
S: https://thesession.org/tunes/4830#setting17278
R: waltz
M: 3/4
L: 1/8
K: Gmaj
b2 bbab |g2 gbab |g2 gbab |gabagf |e2 eefg |d2 df ga |c2 cefg |aa ba ga |b2 bb ab |g2 gb ab |g2 gb ab |ga ba gf |e2 ee fg |d2 df ga |aa ba gf |g3 d BA |G2 BG Bd |fF BF Bd |E2 GE GB |AA BA GA |G2 BG Bd |fF BF Bd |E2 GE GB |A2 AA GA |B2 _eB ef |ga gf ef |d2 fd fa |bc' ba gf |e2 ce fg |d2 Bf ga |aa ba gf |g4 ||
